packages/kaspersky-hexa-ui-icons/src/iconsSVGs/32/UploadFull.svg

<svg xmlns="http://www.w3.org/2000/svg" width="32" height="32" fill="none" viewBox="0 0 32 32"><path fill="#000" fill-rule="evenodd" d="M9.9864 13.1644C10.4225 10.5477 12.5827 8 16 8s5.5775 2.5477 6.0136 5.1644A1 1 0 0 0 23 14c2.7614 0 5 2.2386 5 5s-2.2386 5-5 5h-4v2h4c3.866 0 7-3.134 7-7 0-3.5907-2.7036-6.55-6.1862-6.9532C22.9704 8.9363 20.2264 6 16 6s-6.9703 2.9363-7.8138 6.0468C4.7036 12.45 2 15.4093 2 19c0 3.866 3.134 7 7 7h4v-2H9c-2.7614 0-5-2.2386-5-5s2.2386-5 5-5a1 1 0 0 0 .9864-.8356m6.7207 3.1285 3 3c.3905.3905.3905 1.0237 0 1.4142s-1.0237.3905-1.4142 0L17 19.4142V28c0 .5523-.4477 1-1 1s-1-.4477-1-1v-8.5858l-1.2929 1.2929c-.3905.3905-1.0237.3905-1.4142 0s-.3905-1.0237 0-1.4142l3-3c.3905-.3905 1.0237-.3905 1.4142 0"/></svg>

<svg width="32" height="32" viewBox="0 0 32 32" fill="none" xmlns="http://www.w3.org/2000/svg">
<path d="M9.98639 13.1644C10.4225 10.5477 12.5827 8 16 8C19.4173 8 21.5775 10.5477 22.0136 13.1644C22.094 13.6466 22.5112 14 23 14C25.7614 14 28 16.2386 28 19C28 21.7614 25.7614 24 23 24H19V26H23C26.866 26 30 22.866 30 19C30 15.4093 27.2964 12.45 23.8138 12.0468C22.9704 8.93628 20.2264 6 16 6C11.7736 6 9.02965 8.93628 8.18617 12.0468C4.70358 12.45 2 15.4093 2 19C2 22.866 5.13401 26 9 26H13V24H9C6.23858 24 4 21.7614 4 19C4 16.2386 6.23858 14 9 14C9.48884 14 9.90603 13.6466 9.98639 13.1644Z" fill="black"/>
<path d="M19.7071 19.2929L16.7071 16.2929C16.3166 15.9024 15.6834 15.9024 15.2929 16.2929L12.2929 19.2929C11.9024 19.6834 11.9024 20.3166 12.2929 20.7071C12.6834 21.0976 13.3166 21.0976 13.7071 20.7071L15 19.4142V28C15 28.5523 15.4477 29 16 29C16.5523 29 17 28.5523 17 28V19.4142L18.2929 20.7071C18.6834 21.0976 19.3166 21.0976 19.7071 20.7071C20.0976 20.3166 20.0976 19.6834 19.7071 19.2929Z" fill="black"/>
</svg>
